X: 30
T:Ducks on the Millpond
R:Reel
M:C|
L:1/8
N:Transcribed by Bruce Thomson
H:Kenny Baker â€“ Grassy Fiddle Blues
K:A
|:ea2ba3b|a=gede=g3|Bd=ga b=ga=g|ed (3ef=g
a4|Aceg aba=g|
edef =ga=ge|d=ged BA=GA|B=GA=GF2A2-|ABA=G
A4:||:A,CEA FAAc|
(3BcB A2 B4|=G,B,D=G EF=GA|B=GA=GF2A2|A,CEA
FAAc|(3BcBB3c|DB=GA B=GA=G|
F2E2F2A2-|ABA=G A4:|:e2Ae(3cec
Ad|B=G2dB=G2B|e2Ae(3cec AF|
EGBe (3cec A2|e2Ae (3cec
Ad|B=G2dB=G2B|ABcdef=gf|ed=c2A4:|

